src/images/deploy-aws.svg

<svg xmlns="http://www.w3.org/2000/svg" width="114" height="114" fill="none" viewBox="0 0 114 114"><rect width="114" height="114" fill="#F7A501" rx="10"/><path fill="#fff" fill-rule="evenodd" d="M33.1255 35.1388C31.8452 35.0389 30.5584 35.0572 29.2815 35.1934C27.4139 35.415 25.6113 36.0164 23.9847 36.9606L24.1851 39.7934C24.1851 39.7934 28.2431 38.3178 31.2445 38.5683C34.2459 38.8188 34.8516 39.0784 36.1815 40.7863C37.5114 42.4942 36.2817 45.0311 36.2817 45.0311C36.2817 45.0311 31.1124 43.8014 27.3459 45.0994C23.8754 46.2972 21.8486 49.3259 22.7459 53.4249C23.6431 57.5239 26.5625 58.5123 30.033 58.3392C33.335 58.1707 36.7964 55.1511 36.7964 55.1511L38.9279 57.9839L41.9019 56.1895L40.2395 52.6871C40.2395 52.6871 40.2031 43.5782 40.0665 40.0212C39.9389 36.9606 36.8419 35.4713 33.1255 35.1388ZM33.253 47.536C34.3837 47.611 35.4967 47.8551 36.555 48.2602C36.555 48.2602 36.0449 52.6188 35.0429 53.6527C33.4033 55.356 31.5997 55.9299 29.5502 55.0645C27.5007 54.1992 24.5403 48.8022 31.3174 47.6362C31.9571 47.5328 32.6068 47.5053 33.253 47.5542V47.536Z" clip-rule="evenodd"/><path fill="#fff" fill-rule="evenodd" d="M42.6033 35.6717L49.5169 57.5331L54.0714 57.4101L58.0155 40.2125L62.1145 57.6196L66.8284 57.5604L73.6146 35.7309L68.7049 35.6398L64.3872 53.8121L60.0286 35.6444L55.9296 35.5305L51.8306 53.0014L47.308 35.7582L42.6033 35.6717Z" clip-rule="evenodd"/><path fill="#fff" fill-rule="evenodd" d="M89.701 39.889L89.8786 36.7783C87.5938 35.568 85.0449 34.9421 82.4594 34.9565C78.5198 34.9565 74.3889 39.4427 74.9764 41.9021C76.4475 48.0552 86.6541 48.0278 87.0685 51.7169C87.7062 57.41 75.4547 53.6298 75.4547 53.6298L74.9172 56.5629C77.1015 57.5986 79.4603 58.2165 81.8719 58.3846C85.7158 58.544 89.8058 57.0183 90.7804 53.7892C92.4975 48.0278 87.442 46.3062 83.4933 44.735C80.7059 43.6282 78.6519 42.3211 79.1483 40.9593C79.704 39.4518 81.0794 38.2039 82.5505 37.9989C85.7158 37.6163 89.701 39.889 89.701 39.889Z" clip-rule="evenodd"/><path fill="#fff" fill-rule="evenodd" d="M59.4958 74.817C77.5177 73.8697 81.6076 71.8976 86.8225 69.0374C92.0373 66.1772 76.3928 79.7677 59.1815 79.8451C31.2354 79.9681 20.0132 64.8154 20.0132 64.8154C20.0132 64.8154 40.5492 75.8099 59.4958 74.817Z" clip-rule="evenodd"/><path fill="#fff" fill-rule="evenodd" d="M80.5967 65.3438C82.5596 62.8525 93.422 62.3197 93.9367 63.2715C94.9159 65.0933 93.1169 73.1502 89.0725 77.6682C88.2801 78.5791 91.5547 68.0719 90.5573 66.6099C89.5599 65.148 79.8634 66.2775 80.5967 65.3438Z" clip-rule="evenodd"/></svg>

<svg fill="none" viewBox="0 0 114 114"><rect width="114" height="114" fill="#F7A501" rx="10"/><path fill="#fff" fill-rule="evenodd" d="M33.126 35.139c-1.28-.1-2.568-.082-3.844.054-1.868.222-3.67.823-5.297 1.768l.2 2.832s4.058-1.475 7.06-1.225c3 .25 3.607.51 4.936 2.218 1.33 1.708.1 4.245.1 4.245s-5.169-1.23-8.935.068c-3.47 1.198-5.497 4.227-4.6 8.326.897 4.099 3.817 5.087 7.287 4.914 3.302-.168 6.763-3.188 6.763-3.188l2.132 2.833 2.974-1.794-1.663-3.503s-.036-9.109-.172-12.666c-.128-3.06-3.225-4.55-6.941-4.882zm.127 12.397c1.13.075 2.244.32 3.302.724 0 0-.51 4.359-1.512 5.393-1.64 1.703-3.443 2.277-5.493 1.412-2.05-.866-5.01-6.263 1.767-7.429a8.31 8.31 0 011.936-.082v-.018zm9.35-11.864l6.914 21.861 4.554-.123 3.945-17.197 4.099 17.407 4.713-.06 6.787-21.83-4.91-.09-4.318 18.172-4.358-18.168-4.1-.113L51.832 53l-4.523-17.243-4.705-.086zm47.098 4.217l.178-3.11a15.663 15.663 0 00-7.42-1.823c-3.94 0-8.07 4.487-7.483 6.946 1.472 6.153 11.678 6.126 12.093 9.815.637 5.693-11.614 1.913-11.614 1.913l-.538 2.933a19.378 19.378 0 006.955 1.822c3.844.159 7.934-1.367 8.908-4.596 1.718-5.761-3.338-7.483-7.287-9.054-2.787-1.107-4.841-2.414-4.345-3.776.556-1.507 1.931-2.755 3.403-2.96 3.165-.383 7.15 1.89 7.15 1.89zM59.496 74.817c18.022-.947 22.112-2.92 27.327-5.78 5.214-2.86-10.43 10.73-27.641 10.808-27.947.123-39.169-15.03-39.169-15.03S40.55 75.81 59.496 74.817z" clip-rule="evenodd"/><path fill="#fff" fill-rule="evenodd" d="M80.597 65.344c1.963-2.491 12.825-3.024 13.34-2.072.979 1.821-.82 9.878-4.864 14.396-.793.911 2.482-9.596 1.484-11.058-.997-1.462-10.694-.332-9.96-1.266z" clip-rule="evenodd"/></svg>
